!!!COM: Music21
!!!OTL: Pasodoble Pico
!!!OMV: pezas_pasodobles_pasodoble-pico_pasodoble-pico-partitura-1.musicxml
**kern
*part1
*staff1
*I"Bagpipes
*I'Bag
*clefG^2
*k[]
*M2/4
=1
!LO:TX:a:t=Allegretto
*MM120
!LO:TX:a:t=[quarter]=120
2cc
=
4ee
8.ccL
16eeJk
=
2ggT
=
4aa
8.ggL
16ffJk
=
2gg
=
4ee
16ccLL
16dd
16ee
16ffJJ
=
[2ggT
.
.
=
2gg_
.
.
.
=
2gg]
=
4aa
8.ggL
16ffJk
!!linebreak:original
=
4gg
[8ff
24ffLL]
24gg
24ffJJ
=
2ee
=||
*M2/4
!LO:TX:a:t=Allegretto
*MM120
!LO:TX:a:t=[quarter]=120
2cc
=
4ee
8.ccL
16eeJk
=
2ggT
=
4aa
8.ggL
16ffJk
=
2gg
=
4ee
16ccLL
16dd
16ee
16ffJJ
=
[2ggT
.
.
=
2gg_
.
.
.
=
2gg]
!!linebreak:original
=
4aa
8.ggL
16ffJk
=
4gg
[8ff
24ffLL]
24gg
24ffJJ
!!linebreak:original
=
4.ee
8aa
=||
8ggL
8aaJ
8ggL
8ffJ
=
4ee
8ccL
8eeJ
=
4gg
4ee
=
8ggL
[8ffJ
8ffL]
8ddJ
=
8ffL
8ggJ
8ffL
8eeJ
=
4dd
8bL
8ddJ
=
4ff
4dd
=
8ffL
[8eeJ
8eeL]
8aaJ
=
8ggL
8aaJ
8ggL
8ffJ
=
4ee
8ccL
8eeJ
!!linebreak:original
=
4gg
4ff
!!linebreak:original
=
4.aa
8ff
=
8aaL
8cccJ
8bbL
8aaJ
=
4gg
8eeL
8ggJ
=
4ff
4dd
=
8aaL
[8ggJ
8ggL]
8ffJ
=
8aaL
8cccJ
8bbL
8aaJ
=
8ggL
8ffJ
8eeL
8ggJ
=
8ffL
8eeJ
8ddL
8ffJ
=
4.ee
8aa
=||
8ggL
8aaJ
8ggL
8ffJ
!!pagebreak:original
=
4ee
8ccL
8eeJ
=
4gg
4ee
=
8ggL
[8ffJ
8ffL]
8ddJ
=
8ffL
8ggJ
8ffL
8eeJ
=
4dd
8bL
8ddJ
=
4ff
4dd
=
8ffL
[8eeJ
8eeL]
8aaJ
=
8ggL
8aaJ
8ggL
8ffJ
=
4ee
8ccL
8eeJ
=
4gg
4ff
!!linebreak:original
=
4.aa
8ff
=
8aaL
8cccJ
8bbL
8aaJ
=
4gg
8eeL
8ggJ
=
4ff
4dd
=
8aaL
[8ggJ
8ggL]
8ffJ
=
8aaL
8cccJ
8bbL
8aaJ
=
8ggL
8ffJ
8eeL
8ggJ
=
8ffL
8eeJ
8ddL
8ffJ
=
2ee
=||
2cc
=
4ee
8.ccL
16eeJk
=
2ggT
!!linebreak:original
=
4aa
8.ggL
16ffJk
=
2gg
=
4ee
16ccLL
16dd
16ee
16ffJJ
=
[2ggT
.
.
=
2gg_
.
.
.
=
2gg]
=
4aa
8.ggL
16ffJk
=
4gg
[8ff
24ffLL]
24gg
24ffJJ
=
4.ee
8gg
=||
4.ccc
8gg
=
4.cc
8gg
!!linebreak:original
=
8.cccL
16ggJk
8.cccL
16ggJk
=
4ccc
8.cccL
16bbJk
=||
4aa
[4ff
=
4ff]
8.bbL
16aaJk
=
4gg
[4ee
=
4ee]
8.aaL
16ggJk
=
4ff
8ddL
8eeJ
=
8ffL
8eeJ
8ffL
8ggJ
=
4ee
[4gg
=
4gg]
8.cccL
16bbJk
=
4aa
[4ff
!!linebreak:original
=
8ffL]
8cccJ
8bbL
8aaJ
!!linebreak:original
=
4gg
[4ee
=
8eeL]
8ggJ
8ffL
8eeJ
=
4ff
8ddL
8eeJ
=
8ffL
8ggJ
8aaL
8bbJ
=
[2ccc
.
=
4ccc]
8.cccL
16bbJk
=||
4aa
[4ff
=
4ff]
8.bbL
16aaJk
=
4gg
[4ee
=
4ee]
8.aaL
16ggJk
=
4ff
8ddL
8eeJ
!!linebreak:original
=
8ffL
8eeJ
8ffL
8ggJ
=
4ee
[4gg
=
4gg]
8.cccL
16bbJk
=
4aa
[4ff
=
8ffL]
8cccJ
8bbL
8aaJ
!!pagebreak:original
=
4gg
[4ee
=
8eeL]
8ggJ
8ffL
8eeJ
=
4ff
8ddL
8eeJ
=
8ffL
8ggJ
8aaL
8bbJ
=
4ccc
4gg
=
4ccc
4r
=||
*-
!!!system-decoration: s1,s2
